X: 744
T: Paddy Murphy's Wife   #2
R: reel
%S: s:2 b:10(5+5)
B: Francis O'Neill: "The Dance Music of Ireland" (1907) no. 744
Z: Frank Nordberg - http://www.musicaviva.com
F: http://www.musicaviva.com/abc/tunes/ireland/oneill-1001/0744/oneill-1001-0744-1.abc
M: C|
L: 1/8
K: D
"^A"|: G | (3(FED) (AF) BGAF | EG=cG E=CCE | (3(FED) (AF) BGAF | Dddc dDD  "^B":: g | fada fdaf |
| eg=cg ecgc |[1 fada fdad | (3(Bcd) AG FDD :|[2 afge fdec | dABG FDD |]
